svg/transport/train_4_fill.svg

<?xml version="1.0" encoding="UTF-8"?>
<svg width="24px" height="24px" viewBox="0 0 24 24" version="1.1" xmlns="http://www.w3.org/2000/svg" xmlns:xlink="http://www.w3.org/1999/xlink">
    <title>train_3_fill</title>
    <g id="Icon" stroke="none" stroke-width="1" fill="none" fill-rule="evenodd">
        <g id="Transport" transform="translate(-48.000000, -336.000000)" fill-rule="nonzero">
            <g id="train_3_fill" transform="translate(48.000000, 336.000000)">
                <path d="M24,0 L24,24 L0,24 L0,0 L24,0 Z M12.5935,23.2578 L12.5819,23.2595 L12.5109,23.295 L12.4919,23.2987 L12.4767,23.295 L12.4057,23.2595 C12.3958,23.2564 12.387,23.259 12.3821,23.2649 L12.378,23.2758 L12.3609,23.7031 L12.3659,23.7235 L12.3769,23.7357 L12.4805,23.8097 L12.4953,23.8136 L12.5071,23.8097 L12.6107,23.7357 L12.6233,23.7197 L12.6267,23.7031 L12.6096,23.2758 C12.6076,23.2657 12.601,23.2593 12.5935,23.2578 Z M12.8584,23.1453 L12.8445,23.1473 L12.6598,23.2397 L12.6499,23.2499 L12.6472,23.2611 L12.6651,23.6906 L12.6699,23.7034 L12.6784,23.7105 L12.8793,23.8032 C12.8914,23.8069 12.9022,23.803 12.9078,23.7952 L12.9118,23.7812 L12.8777,23.1665 C12.8753,23.1546 12.8674,23.147 12.8584,23.1453 Z M12.143,23.1473 C12.1332,23.1424 12.1222,23.1453 12.1156,23.1526 L12.1099,23.1665 L12.0758,23.7812 C12.0751,23.7927 12.0828,23.8019 12.0926,23.8046 L12.1083,23.8032 L12.3092,23.7105 L12.3186,23.7024 L12.3225,23.6906 L12.3404,23.2611 L12.3372,23.2485 L12.3278,23.2397 L12.143,23.1473 Z" id="MingCute"></path>
                <path d="M14.7207,2 C17.0296187,2 19.0276202,3.57879912 19.5751768,5.80226477 L19.6236,6.01942 L21.0236,13.0194 C21.5199879,15.5014364 20.0953179,17.8499484 17.8834356,18.6818907 L17.6738,18.7554 L19.5999,20.2 C20.0417,20.5314 20.1312,21.1582 19.7999,21.6 C19.4939923,22.0078154 18.9363828,22.1155314 18.5049192,21.8690349 L18.3999,21.8 L14.6665,19 L9.33321,19 L5.59988,21.8 C5.15805,22.1314 4.53125,22.0418 4.19988,21.6 C3.894,21.1921846 3.94676521,20.6267361 4.30420413,20.281502 L4.39988,20.2 L6.32599,18.7554 C4.06605303,18.0195939 2.55785806,15.7239039 2.93529625,13.251649 L2.97624,13.0194 L4.37624,6.01942 C4.82905312,3.755335 6.76902313,2.10578322 9.05670428,2.00489726 L9.27914,2 L14.7207,2 Z M8.24988,13.25 C7.55952,13.25 6.99988,13.8096 6.99988,14.5 C6.99988,15.1904 7.55952,15.75 8.24988,15.75 C8.94023,15.75 9.49988,15.1904 9.49988,14.5 C9.49988,13.8096 8.94023,13.25 8.24988,13.25 Z M15.7499,13.25 C15.0595,13.25 14.4999,13.8096 14.4999,14.5 C14.4999,15.1904 15.0595,15.75 15.7499,15.75 C16.4402,15.75 16.9999,15.1904 16.9999,14.5 C16.9999,13.8096 16.4402,13.25 15.7499,13.25 Z M14.6095,5 L9.39027,5 C8.70197,5 8.10199,5.46845 7.93505,6.1362 L7.18505,9.1362 C6.94837,10.0829 7.66441,11 8.64027,11 L15.3595,11 C16.3353,11 17.0514,10.0829 16.8147,9.1362 L16.0647,6.1362 C15.8978,5.46845 15.2978,5 14.6095,5 Z M14.2191,7 L14.7191,9 L9.28065,9 L9.78065,7 L14.2191,7 Z" id="形状" fill="#09244B"></path>
            </g>
        </g>
    </g>
</svg>

<svg xmlns="http://www.w3.org/2000/svg" width="24" height="24"><g fill="none" fill-rule="nonzero"><path d="M24 0v24H0V0h24ZM12.594 23.258l-.012.002-.071.035-.02.004-.014-.004-.071-.036c-.01-.003-.019 0-.024.006l-.004.01-.017.428.005.02.01.013.104.074.015.004.012-.004.104-.074.012-.016.004-.017-.017-.427c-.002-.01-.009-.017-.016-.018Zm.264-.113-.014.002-.184.093-.01.01-.003.011.018.43.005.012.008.008.201.092c.012.004.023 0 .029-.008l.004-.014-.034-.614c-.003-.012-.01-.02-.02-.022Zm-.715.002a.023.023 0 0 0-.027.006l-.006.014-.034.614c0 .012.007.02.017.024l.015-.002.201-.093.01-.008.003-.011.018-.43-.003-.012-.01-.01-.184-.092Z"/><path fill="#09244B" d="M14.72 2a5 5 0 0 1 4.855 3.802l.049.217 1.4 7c.496 2.482-.929 4.83-3.14 5.663l-.21.073L19.6 20.2a1 1 0 0 1-1.095 1.669L18.4 21.8 14.667 19H9.333L5.6 21.8a1 1 0 0 1-1.296-1.518L4.4 20.2l1.926-1.445c-2.26-.735-3.768-3.031-3.39-5.503l.04-.233 1.4-7a5 5 0 0 1 4.68-4.014L9.28 2h5.442ZM8.25 13.25a1.25 1.25 0 1 0 0 2.5 1.25 1.25 0 0 0 0-2.5Zm7.5 0a1.25 1.25 0 1 0 0 2.5 1.25 1.25 0 0 0 0-2.5ZM14.61 5H9.39a1.5 1.5 0 0 0-1.455 1.136l-.75 3A1.5 1.5 0 0 0 8.64 11h6.72a1.5 1.5 0 0 0 1.455-1.864l-.75-3A1.5 1.5 0 0 0 14.609 5Zm-.39 2 .5 2H9.28l.5-2h4.44Z"/></g></svg>
